X:1
T:Title
%%score { ( 1 4 ) | ( 2 3 ) }
L:1/8
Q:1/4=78
M:6/8
K:Db
V:1 treble nm="Grand Piano"
V:4 treble 
V:2 bass 
V:3 bass 
V:1
 [DFA]>[A,EG][A,DF] [DFA]>[A,EG][A,DF] | [DF] [CE]2 z2 [DF] | [EG]>[DF][EG] [GB]2 [FA] | %3
w: Lanta~Wilson~Smith * * * * *|||
[M:5/8] F-F- F3 |[M:1/8] F/E/ |[M:3/4] [F,D]>[A,DF] [DFA] [DAd]2 [DAc] | [DAc] .[DGB]3 z [DGB] | %7
w: ||||
 [DFA]>[A,DF][K:bass] [F,D] [A,DF]2 [G,CE] | [F,D]6 | %9
w: ||
 [CE]>[K:treble][DF] [EG][Gc]- [Gc]/[GB]/[GA] | [FA] .[Fd]3 z [Fd] | c>B A B2 =G |[M:5/8] A-A- A3 | %13
w: ||||
[M:1/8] [EG] |[M:3/4] F>E D [Fd]2 F | G .B3 z B | A>=G A [_GB]2 [Gc] | [Fd]6 | %18
w: |||||
 [Ge]>[Gd] [Gc][Gc]- [Gc]/[GB]/[GA] | [FA]3 [Fd]2 [Ad] | [=Gd]>[Gc] [GB] [Gc]2 [DGB] | %21
w: |||
[M:5/8] A2- [FA-] [GA]2 |[M:1/8] [EGA] |[M:3/4] [DFA]>[A,EG] [A,DF] [Fd]2 [Ac] | [Ac] .B3 z B | %25
w: ||||
 A>=G A [_GB]2 [Gc][Q:1/4=77][Q:1/4=76][Q:1/4=75][Q:1/4=73] | %26
w: |
 [Fd]6[Q:1/4=72][Q:1/4=71][Q:1/4=70][Q:1/4=69][Q:1/4=68][Q:1/4=67][Q:1/4=65][Q:1/4=64][Q:1/4=63][Q:1/4=62][Q:1/4=61][Q:1/4=60] |] %27
w: |
V:2
 D,>D,D, D,>D,D, | [A,,A,] [A,,A,]2 z2 [A,,A,] | [A,,A,]>[A,,A,][A,,A,] [A,,A,]2 [A,,A,] | %3
[M:5/8] [D,A,D]-[D,A,D]- [D,A,D]3 |[M:1/8] A,/ z/ |[M:3/4] D,>D, D, F,2 F, | G, .G,3 z G,, | %7
 A,,>A,, A,, A,,2 A,, | D,6 | [A,,A,]>[A,,A,] [A,,A,][A,,A,]- [A,,A,]/[A,,A,]/[A,,A,] | %10
 [D,A,] .[D,A,]3 z [D,A,] | [E,A,E]>[E,=G,D] [E,A,C] [E,DE]2 [E,B,E] | %12
[M:5/8] [A,CE]-[A,CE]- [A,CE]3 |[M:1/8] [C,A,] |[M:3/4] [D,A,D]>[D,G,D] [D,F,] [D,A,]2 [D,A,D] | %15
 [G,B,D][K:treble] .[G,DG]3 z [=G,D_F] | [A,DF]>[A,_F] [A,=F][K:bass] [A,,A,]2 [A,,A,] | [D,A,]6 | %18
 [A,,A,]>[A,,A,] [A,,A,][A,,A,]- [A,,A,]/[A,,A,]/[A,,A,] | [D,A,]3 [D,A,]2 [F,A,] | %20
 [E,B,]>[E,E] [E,E] [E,E]2 E, |[M:5/8] z ED E2 |[M:1/8] C, |[M:3/4] D,>D, D, [D,A,]2 [F,D] | %24
 [G,D][K:treble] .[G,DG]3 z [=G,D_F] | [A,DF]>[A,_F] [A,=F][K:bass] [A,,A,]2 [A,,A,] | [D,A,]6 |] %27
V:3
 x6 | x6 | x6 |[M:5/8] x5 |[M:1/8] [D,D]/-[D,G,D]/ |[M:3/4] x6 | x6 | x6 | x6 | x6 | x6 | x6 | %12
[M:5/8] x5 |[M:1/8] x |[M:3/4] x6 | x[K:treble] x5 | x3[K:bass] x3 | x6 | x6 | x6 | x6 | %21
[M:5/8] A,,-A,,- A,,3 |[M:1/8] x |[M:3/4] x6 | x[K:treble] x5 | x3[K:bass] x3 | x6 |] %27
V:4
 x6 | x6 | x6 |[M:5/8] x5 |[M:1/8] x |[M:3/4] x6 | x6 | x2[K:bass] x4 | x6 | x3/2[K:treble] x9/2 | %10
 x6 | x6 |[M:5/8] x5 |[M:1/8] x |[M:3/4] x6 | x6 | x6 | x6 | x6 | x6 | x6 |[M:5/8] C2 z z2 | %22
[M:1/8] x |[M:3/4] x6 | x6 | x6 | x6 |] %27

